src/food-drink/food-prepared/1F372.svg

<svg id="emoji" viewBox="0 0 72 72" xmlns="http://www.w3.org/2000/svg">
  <g id="grid">
    <path fill="#b3b3b3" d="M68,4V68H4V4H68m4-4H0V72H72V0Z"/>
    <path fill="none" stroke="#00a5ff" stroke-miterlimit="10" stroke-width="0.1" d="M12.923,10.9583H59.0769A1.9231,1.9231,0,0,1,61,12.8814V59.0352a1.9231,1.9231,0,0,1-1.9231,1.9231H12.9231A1.9231,1.9231,0,0,1,11,59.0352V12.8813A1.923,1.923,0,0,1,12.923,10.9583Z"/>
    <rect x="16" y="4" rx="2.2537" width="40" height="64" fill="none" stroke="#00a5ff" stroke-miterlimit="10" stroke-width="0.1"/>
    <rect x="16" y="4" rx="2.2537" width="40" height="64" transform="translate(72) rotate(90)" fill="none" stroke="#00a5ff" stroke-miterlimit="10" stroke-width="0.1"/>
    <circle cx="36" cy="36" r="29" fill="none" stroke="#00a5ff" stroke-miterlimit="10" stroke-width="0.1"/>
  </g>
  <g id="color">
    <path fill="#FFFFFF" stroke="none" d="M7,36c0,16.0166,12.9834,29,29,29s29-12.9834,29-29H7z"/>
    <path fill="#d0cfce" stroke="none" d="M49,36c0,16.0156-4,29-13,29c16.0166,0,29-12.9844,29-29H49z"/>
  </g>
  <g id="hair"/>
  <g id="skin"/>
  <g id="skin-shadow"/>
  <g id="line">
    <path fill="none" stroke="#000000" stroke-linecap="round" stroke-linejoin="round" stroke-miterlimit="10" stroke-width="2" d="M7,36c0,16.0166,12.9834,29,29,29s29-12.9834,29-29H7z"/>
    <line x1="7" x2="14" y1="25.1406" y2="32.1406" fill="none" stroke="#000000" stroke-linecap="round" stroke-linejoin="round" stroke-miterlimit="10" stroke-width="2"/>
    <path fill="none" stroke="#000000" stroke-linecap="round" stroke-linejoin="round" stroke-miterlimit="10" stroke-width="2" d="M29.043,7.8457c0.1015,1.125,0.5605,2.2236,1.4209,3.084c1.9521,1.9512,1.9521,5.1172,0,7.0703 c-1.9522,1.9531-1.9522,5.1191,0,7.0703c1.9521,1.9512,1.9521,5.1172,0,7.0703c1.9521-1.9531,1.9521-5.1191,0-7.0703 c-1.9522-1.9512-1.9522-5.1172,0-7.0703c1.9521-1.9531,1.9521-5.1191,0-7.0703C29.6035,10.0693,29.1445,8.9707,29.043,7.8457"/>
    <path fill="none" stroke="#000000" stroke-linecap="round" stroke-linejoin="round" stroke-miterlimit="10" stroke-width="2" d="M34.5703,7.0361C34.4697,8.4336,34.9316,9.8623,36,10.9297c1.9521,1.9512,1.9521,5.1172,0,7.0703 c-1.9521,1.9531-1.9521,5.1191,0,7.0703c1.9521,1.9512,1.9521,5.1172,0,7.0703c1.9521-1.9531,1.9521-5.1191,0-7.0703 c-1.9521-1.9512-1.9521-5.1172,0-7.0703c1.9521-1.9531,1.9521-5.1191,0-7.0703C34.9316,9.8623,34.4697,8.4336,34.5703,7.0361"/>
    <path fill="none" stroke="#000000" stroke-linecap="round" stroke-linejoin="round" stroke-miterlimit="10" stroke-width="2" d="M40.0107,7.2832c-0.0302,1.3164,0.4483,2.6426,1.4532,3.6465c1.9521,1.9512,1.9521,5.1172,0,7.0703 c-1.9522,1.9531-1.9522,5.1191,0,7.0703c1.9521,1.9512,1.9521,5.1172,0,7.0703c1.9521-1.9531,1.9521-5.1191,0-7.0703 c-1.9522-1.9512-1.9522-5.1172,0-7.0703c1.9521-1.9531,1.9521-5.1191,0-7.0703C40.459,9.9258,39.9805,8.5996,40.0107,7.2832"/>
  </g>
</svg>

<svg viewBox="0 0 72 72" xmlns="http://www.w3.org/2000/svg"><path fill="#b3b3b3" d="M68 4v64H4V4h64m4-4H0v72h72V0z"/><path fill="none" stroke="#00a5ff" stroke-miterlimit="10" stroke-width=".1" d="M12.923 10.958h46.154A1.923 1.923 0 0161 12.881v46.154a1.923 1.923 0 01-1.923 1.923H12.923A1.923 1.923 0 0111 59.035V12.881a1.923 1.923 0 011.923-1.923z"/><rect x="16" y="4" rx="2.254" width="40" height="64" fill="none" stroke="#00a5ff" stroke-miterlimit="10" stroke-width=".1"/><rect x="16" y="4" rx="2.254" width="40" height="64" transform="rotate(90 36 36)" fill="none" stroke="#00a5ff" stroke-miterlimit="10" stroke-width=".1"/><circle cx="36" cy="36" r="29" fill="none" stroke="#00a5ff" stroke-miterlimit="10" stroke-width=".1"/><path d="M7 36c0 16.017 12.983 29 29 29s29-12.983 29-29H7zm0-10.859l7 7M29.043 7.846a4.953 4.953 0 001.42 3.084 5 5 0 010 7.07 5 5 0 000 7.07 5 5 0 010 0 5 5 0 010-7.07 5 5 0 000-7.07 4.953 4.953 0 01-1.42-3.084m5.527-.81c-.1 1.398.362 2.826 1.43 3.894A5 5 0 0136 18a5 5 0 000 7.07 5 5 0 010 0A5 5 0 0136 18a5 5 0 000-7.07c-1.068-1.068-1.53-2.496-1.43-3.894m5.44.247a4.969 4.969 0 001.454 3.647 5 5 0 010 7.07 5 5 0 000 7.07 5 5 0 010 0 5 5 0 010-7.07 5 5 0 000-7.07 4.969 4.969 0 01-1.453-3.647" stroke-linecap="round" stroke-miterlimit="10" stroke-width="6" stroke="#fff" fill="none" stroke-linejoin="round"/><path fill="#FFF" d="M7 36c0 16.017 12.983 29 29 29s29-12.983 29-29H7z"/><path fill="#d0cfce" d="M49 36c0 16.016-4 29-13 29 16.017 0 29-12.984 29-29H49z"/><path d="M7 36c0 16.017 12.983 29 29 29s29-12.983 29-29H7zm0-10.859l7 7M29.043 7.846a4.953 4.953 0 001.42 3.084 5 5 0 010 7.07 5 5 0 000 7.07 5 5 0 010 0 5 5 0 010-7.07 5 5 0 000-7.07 4.953 4.953 0 01-1.42-3.084m5.527-.81c-.1 1.398.362 2.826 1.43 3.894A5 5 0 0136 18a5 5 0 000 7.07 5 5 0 010 0A5 5 0 0136 18a5 5 0 000-7.07c-1.068-1.068-1.53-2.496-1.43-3.894m5.44.247a4.969 4.969 0 001.454 3.647 5 5 0 010 7.07 5 5 0 000 7.07 5 5 0 010 0 5 5 0 010-7.07 5 5 0 000-7.07 4.969 4.969 0 01-1.453-3.647" fill="none" stroke="#000" stroke-linecap="round" stroke-linejoin="round" stroke-miterlimit="10" stroke-width="2"/></svg>
